X: 207
%
U:~=!turn!
T: Glenlyon's Piper
C:
O:Scotland
B:Keith Norman MacDonald : "The Skye collection of the best reels & strathspeys extant" : 1887
Z:Ralph Palmer
R:Reel
M:C
L:1/8
K:Am
g | eA A/A/A (ed)Bd | BG G/G/G (BA)Bd | eA A/A/A (ed)Bd | edgB A2 A ::
g | edeg abag | dgBg dgBg | edeg abag | edgB A2 A :|


